public/img/fast-execution.svg

<svg width="42" height="42" viewBox="0 0 42 42" fill="none" xmlns="http://www.w3.org/2000/svg">
<path d="M17.3281 24.6719C18.5781 25.8438 19.3594 27.4062 19.5938 29.0469C29.4375 26.625 34.5938 22.0156 37.1719 17.25C39.9062 12.3281 39.9062 7.01562 39.2812 3.42188C39.2812 3.03125 38.9688 2.71875 38.5781 2.71875C34.9844 2.09375 29.6719 2.09375 24.75 4.82812C19.9844 7.40625 15.375 12.5625 12.9531 22.4062C14.5938 22.6406 16.1562 23.4219 17.3281 24.6719ZM19.75 30.375V39.0469C19.75 39.5156 20.2188 39.75 20.6094 39.5938L27.9531 35.9219C29.0469 35.375 29.75 34.2812 29.75 33.1094V26.3906C27.0156 27.9531 23.7344 29.2812 19.75 30.2969V30.375ZM31 33.1094C31 34.75 30.0625 36.2344 28.5781 37.0156L21.1562 40.6875C19.9062 41.3125 18.5 40.375 18.5 39.0469V30.375C18.5 28.5781 17.7188 26.8594 16.4688 25.5312C15.1406 24.2812 13.4219 23.5 11.625 23.5H2.95312C1.625 23.5 0.6875 22.0938 1.3125 20.8438L4.98438 13.4219C5.76562 11.9375 7.25 11 8.89062 11H16.3906C22.9531 1.15625 32.9531 0.453125 38.7344 1.46875C39.6719 1.625 40.375 2.32812 40.5312 3.26562C41.5469 9.04688 40.8438 19.0469 31 25.6094V33.1094ZM11.7031 22.25C12.7188 18.2656 14.0469 14.9844 15.6094 12.25H8.89062C7.71875 12.25 6.625 12.9531 6.07812 14.0469L2.40625 21.3906C2.25 21.7812 2.5625 22.25 2.95312 22.25H11.625H11.7031ZM13.1094 36.8594C15.2969 34.6719 15.2969 31.0781 13.1094 28.8906C10.9219 26.7031 7.32812 26.7031 5.14062 28.8906C4.04688 29.9844 3.34375 31.7031 2.875 33.6562C2.40625 35.5312 2.25 37.4062 2.25 38.8906C2.25 39.3594 2.64062 39.8281 3.1875 39.75C4.59375 39.75 6.46875 39.5938 8.42188 39.125C10.2969 38.7344 12.0156 37.9531 13.1094 36.8594ZM13.9688 37.7188C11.3125 40.4531 6.15625 40.9219 3.1875 41C1.9375 41.0781 0.921875 40.0625 1 38.8125C1.07812 35.8438 1.54688 30.6875 4.28125 28.0312C6.9375 25.375 11.3125 25.375 13.9688 28.0312C16.625 30.6875 16.625 35.0625 13.9688 37.7188ZM32.875 12.25C32.875 11.1562 32.25 10.1406 31.3125 9.59375C30.2969 9.04688 29.125 9.04688 28.1875 9.59375C27.1719 10.1406 26.625 11.1562 26.625 12.25C26.625 13.4219 27.1719 14.4375 28.1875 14.9844C29.125 15.5312 30.2969 15.5312 31.3125 14.9844C32.25 14.4375 32.875 13.4219 32.875 12.25ZM29.75 7.875C31.3125 7.875 32.7188 8.73438 33.5 10.0625C34.2812 11.4688 34.2812 13.1094 33.5 14.4375C32.7188 15.8438 31.3125 16.625 29.75 16.625C28.1094 16.625 26.7031 15.8438 25.9219 14.4375C25.1406 13.1094 25.1406 11.4688 25.9219 10.0625C26.7031 8.73438 28.1094 7.875 29.75 7.875Z" fill="#1A75BB"/>
</svg>

<svg xmlns="http://www.w3.org/2000/svg" width="42" height="42" fill="none"><path fill="#1A75BB" d="M17.328 24.672a7.45 7.45 0 0 1 2.266 4.375c9.843-2.422 15-7.031 17.578-11.797 2.734-4.922 2.734-10.234 2.11-13.828a.7.7 0 0 0-.704-.703c-3.594-.625-8.906-.625-13.828 2.11-4.766 2.577-9.375 7.734-11.797 17.577a7.45 7.45 0 0 1 4.375 2.266m2.422 5.703v8.672c0 .469.469.703.86.547l7.343-3.672c1.094-.547 1.797-1.64 1.797-2.813v-6.718c-2.734 1.562-6.016 2.89-10 3.906zM31 33.109c0 1.641-.937 3.125-2.422 3.907l-7.422 3.672c-1.25.624-2.656-.313-2.656-1.641v-8.672c0-1.797-.781-3.516-2.031-4.844-1.328-1.25-3.047-2.031-4.844-2.031H2.953c-1.328 0-2.265-1.406-1.64-2.656l3.671-7.422C5.766 11.937 7.25 11 8.891 11h7.5C22.953 1.156 32.953.453 38.734 1.469c.938.156 1.641.86 1.797 1.797 1.016 5.78.313 15.78-9.531 22.343zM11.703 22.25c1.016-3.984 2.344-7.266 3.906-10H8.891c-1.172 0-2.266.703-2.813 1.797L2.406 21.39c-.156.39.156.859.547.859h8.75m1.406 14.61c2.188-2.188 2.188-5.782 0-7.97-2.187-2.187-5.78-2.187-7.968 0-1.094 1.094-1.797 2.813-2.266 4.766-.469 1.875-.625 3.75-.625 5.235 0 .468.39.937.938.859 1.406 0 3.28-.156 5.234-.625 1.875-.39 3.594-1.172 4.687-2.266m.86.859C11.313 40.453 6.156 40.922 3.188 41A2.05 2.05 0 0 1 1 38.813c.078-2.97.547-8.126 3.281-10.782 2.657-2.656 7.032-2.656 9.688 0s2.656 7.032 0 9.688M32.875 12.25c0-1.094-.625-2.11-1.562-2.656-1.016-.547-2.188-.547-3.125 0-1.016.547-1.563 1.562-1.563 2.656 0 1.172.547 2.188 1.563 2.734.937.547 2.109.547 3.125 0a3.15 3.15 0 0 0 1.562-2.734M29.75 7.875c1.563 0 2.969.86 3.75 2.188.781 1.406.781 3.046 0 4.374-.781 1.407-2.187 2.188-3.75 2.188-1.64 0-3.047-.781-3.828-2.187-.781-1.329-.781-2.97 0-4.376a4.4 4.4 0 0 1 3.828-2.187"/></svg>
